!!!!SEGMENT: pl-sa--235-a-vi-39--002_toeschi-carl-joseph--sinfonia-ex-dis-andante.krn
!!!cenid: 17xx:667
!!!COM: Toeschi, Carl Joseph
!!!COM-rismid: pe30003139
!!!CDT: 1731-1788
!!!CNT: Italian
!!!OPR: Sinfonia ex Dis
!!!OTL: Andante
!!!OMV: 002
!!!PDT:
!!!AGN: Secular
!!!SMS-siglum: PL-SA
!!!SMS-shelfmark: 235/A VI 39
!!!SMS-shelfwork: 001-002 M
!!!SMS-variant:
!!!SMS-altvar:
!!!NIFC-rismid: 1001035307
!!!URL-scan: http://bc.bdsandomierz.pl/dlibra/publication/1588/edition/1556/content
!!!ONB-nifc: UWAGA: części Sinfonii: Allegro, Andante, Presto. Uwaga: Andante jako „Adagio” w vl I.
!!!AIN: 2 cor 1 empty 2 flt 1 viola 2 violn
!!!key:
**kern	**dynam	**kern	**dynam	**kern	**dynam	**kern	**dynam	**kern	**kern	**kern	**kern
*part8	*part8	*part7	*part7	*part6	*part6	*part5	*part5	*part4	*part3	*part2	*part1
*staff8	*	*staff7	*	*staff6	*	*staff5	*	*staff4	*staff3	*staff2	*staff1
*Iempty	*	*Iviola	*	*Ivioln	*	*Ivioln	*	*Icor	*Icor	*Iflt	*Iflt
*I"Baſso	*	*I"alto viola	*	*I"Violino Secundo	*	*I"Violino Primo	*	*I"Corno 2do.	*I"Corno 1mo	*I"Flauto Secundo	*I"Flauto 1mo
*I'B.	*	*I'a-vla	*	*I'vl 2	*	*I'vl 1	*	*I'cor 2	*I'cor 1	*I'fl 2	*I'fl 1
*clefF4	*	*clefC3	*	*clefG2	*	*clefG2	*	*clefG2	*clefG2	*clefG2	*clefG2
*ITrd0c0	*	*	*	*	*	*	*	*ITrd5c9	*ITrd5c9	*	*
*k[b-e-]	*	*k[b-e-]	*	*k[b-e-]	*	*k[b-e-]	*	*k[b-e-a-d-g-]	*k[b-e-a-d-g-]	*k[b-e-]	*k[b-e-]
*B-:	*	*B-:	*	*B-:	*	*B-:	*	*B-:	*B-:	*B-:	*B-:
*M2/4	*	*M2/4	*	*M2/4	*	*M2/4	*	*M2/4	*M2/4	*M2/4	*M2/4
!	!	!	!	!	!	!	!	!	!	!	!LO:TX:a:B:t=tacet
!LO:TX:rj:a:B:t=Andante	!	!LO:TX:rj:a:B:t=Andante moderato	!	!LO:TX:rj:a:B:t=Andante moderato	!	!LO:TX:a:B:t=adagio	!	!LO:TX:a:B:t=tacet	!LO:TX:a:B:t=tacet	!LO:TX:a:B:t=tacet	!LO:TX:a:B:t=Andante
8r	.	8r	.	8r	.	(32b-\LLL	p	8ryy	8ryy	8ryy	8ryy
.	.	.	.	.	.	32cc\	.	.	.	.	.
.	.	.	.	.	.	32b-\	.	.	.	.	.
.	.	.	.	.	.	32cc\JJJ)	.	.	.	.	.
=1	=1	=1	=1	=1	=1	=1	=1	=1	=1	=1	=1
8BB-/	.	8B-/	p	8r	.	8dd\|	.	2ryy	2ryy	2ryy	2ryy
8r	.	8r	.	(32b-\LLL	.	(32dd\LLL	.	.	.	.	.
.	.	.	.	32cc\	.	32ee-\	.	.	.	.	.
.	.	.	.	32b-\	.	32dd\	.	.	.	.	.
.	.	.	.	32cc\JJJ)	.	32ee-\JJJ)	.	.	.	.	.
8BB-/	.	8B-/	.	8dd\	.	8ff\|	.	.	.	.	.
8r	.	8r	.	(32ee-\LLL	.	(32gg\LLL	.	.	.	.	.
.	.	.	.	32cc\	.	32aa\	.	.	.	.	.
.	.	.	.	32ee-\	.	32gg\	.	.	.	.	.
.	.	.	.	32cc\JJJ)	.	32aa\JJJ)	.	.	.	.	.
=2	=2	=2	=2	=2	=2	=2	=2	=2	=2	=2	=2
!LO:TX:a:t=P:problem=mixed beam	!	!LO:TX:a:t=P:problem=mixed beam	!	!	!	!	!	!	!	!	!
8BB-/L	.	8B-/L	.	8dd\	.	8bb-\	.	2ryy	2ryy	2ryy	2ryy
(32B-\LL	.	(32b-\LL	.	(32dd\LLL	.	8r	.	.	.	.	.
32c\	.	32cc\	.	32ee-\	.	.	.	.	.	.	.
32B-\	.	32b-\	.	32dd\	.	.	.	.	.	.	.
32c\JJJ)	.	32cc\JJJ)	.	32ee-\JJJ)	.	.	.	.	.	.	.
8d\	.	8dd\	.	8ff\|	.	8r	.	.	.	.	.
8r	.	8r	.	8r	.	(32bb-\LLL	.	.	.	.	.
.	.	.	.	.	.	32aa\	.	.	.	.	.
.	.	.	.	.	.	32gg\	.	.	.	.	.
.	.	.	.	.	.	32ff#X\JJJ)	.	.	.	.	.
=3	=3	=3	=3	=3	=3	=3	=3	=3	=3	=3	=3
!	!	!LO:TX:a:t=2	!	!	!	!	!	!	!	!	!
!LO:N:vis=0	!	!LO:N:vis=0	!	!	!	!	!	!	!	!	!
1r	.	1r	.	8r	.	8gg\|	.	2ryy	2ryy	2ryy	2ryy
.	.	.	.	(32ee-\LLL	.	8r	.	.	.	.	.
.	.	.	.	32dd\	.	.	.	.	.	.	.
.	.	.	.	32ee-\	.	.	.	.	.	.	.
.	.	.	.	32dd\JJJ)	.	.	.	.	.	.	.
.	.	.	.	8ee-\|	.	8r	.	.	.	.	.
.	.	.	.	8r	.	(32gg\LLL	.	.	.	.	.
.	.	.	.	.	.	32ff\	.	.	.	.	.
.	.	.	.	.	.	32ee-\	.	.	.	.	.
.	.	.	.	.	.	32dd\JJJ)	.	.	.	.	.
=4	=4	=4	=4	=4	=4	=4	=4	=4	=4	=4	=4
.	.	.	.	8r	.	8ee-`\	.	2ryy	2ryy	2ryy	2ryy
.	.	.	.	(32cc\LLL	.	8r	.	.	.	.	.
.	.	.	.	32bn\	.	.	.	.	.	.	.
.	.	.	.	32cc\	.	.	.	.	.	.	.
.	.	.	.	32b\JJJ)	.	.	.	.	.	.	.
.	.	.	.	8cc\|	.	4r	.	.	.	.	.
.	.	.	.	8r	.	.	.	.	.	.	.
=5	=5	=5	=5	=5	=5	=5	=5	=5	=5	=5	=5
*	*	*	*	*^	*	*	*	*	*	*	*
!LO:TX:a:t=P:problem=mixed beam	!	!LO:TX:a:t=P:problem=mixed beam	!	!	!	!	!	!LO:DY:t=for	!	!	!	!
*	*	*	*	*	*tremolo	*	*	*	*	*	*	*
16BB-/LL	f	16B-/LL	.	16.dd/LL	16f\L	.	16.d/LL 16.b-/ 16.bb-/	f	2ryy	2ryy	2ryy	2ryy
16B-\	.	16b-\	.	.	16f\	.	.	.	.	.	.	.
.	.	.	.	32b-/JJk	.	.	32ff/JJk	.	.	.	.	.
16BB-/	.	16B-/	.	32f/LLL 32dd/	16f\	.	32.bb-\LLL	.	.	.	.	.
.	.	.	.	32f/ 32dd/	.	.	.	.	.	.	.	.
.	.	.	.	.	.	.	64ff\K	.	.	.	.	.
16B-\JJ	.	16b-\JJ	.	32f/ 32dd/	16f\	.	32.bb-\	.	.	.	.	.
.	.	.	.	32f/JJJ 32dd/	.	.	.	.	.	.	.	.
.	.	.	.	.	.	.	64ff\JJJk	.	.	.	.	.
!	!	!	!	!LO:LB:g=original	!	!	!	!	!	!	!	!
!LO:TX:a:t=P:problem=mixed beam	!	!LO:TX:a:t=P:problem=mixed beam	!	!LO:TX:a:t=P:problem=mixed beam	!	!	!	!	!	!	!	!
16BB-\LL	.	16B-\LL	.	16dd\LL	16f\	.	16bb-\LL	.	.	.	.	.
16D\	.	16d\	.	16d/JJ	16f\J	.	16b-\	.	.	.	.	.
.	.	.	.	.	.	.	(>8qqdd/	.	.	.	.	.
16F\	.	16f\	.	(16e-/LL	8ryy	.	16cc\	.	.	.	.	.
16FF/JJ	.	16F/JJ	.	32d/L	.	.	32b-\L	.	.	.	.	.
.	.	.	.	32c/JJJ)	.	.	32a\JJJ)	.	.	.	.	.
*	*	*	*	*Xtremolo	*Xtremolo	*	*	*	*	*	*	*
*	*	*	*	*v	*v	*	*	*	*	*	*	*
=6	=6	=6	=6	=6	=6	=6	=6	=6	=6	=6	=6
.	.	.	.	8qqc/	.	8qqa/	.	.	.	.	.
!	!LO:DY:a	!	!	!	!	!	!	!	!	!	!
8BB-/L	p	8B-/	p	8d/	.	4b-\	.	2ryy	2ryy	2ryy	2ryy
!	!	!LO:LB:g=original	!	!	!	!	!	!	!	!	!
(32D/LL	.	(32d/LLL	p	(32f/LLL	p	.	.	.	.	.	.
32C/	.	32c/	.	32e-/	.	.	.	.	.	.	.
32BB-/	.	32B-/	.	32d/	.	.	.	.	.	.	.
32C/JJJ	.	32c/JJJ	.	32e-/JJJ)	.	.	.	.	.	.	.
8BB-/)	.	8B-/)	.	8d/|	.	8r	.	.	.	.	.
8r	.	8r	.	8r	.	(32dd\LLL	p	.	.	.	.
.	.	.	.	.	.	32ee-\)	.	.	.	.	.
.	.	.	.	.	.	(32een\	.	.	.	.	.
.	.	.	.	.	.	32ff\JJJ)	.	.	.	.	.
!	!	!	!	!	!	!LO:LB:g=original	!	!	!	!	!
=7	=7	=7	=7	=7	=7	=7	=7	=7	=7	=7	=7
!LO:N:vis=0	!	!	!	!	!	!	!	!	!	!	!
1r	.	8r	.	8r	.	8ff\|	.	2ryy	2ryy	2ryy	2ryy
.	.	(32b-\LLL	.	(32dd\LLL	.	8r	.	.	.	.	.
.	.	32a\)	.	32cc\	.	.	.	.	.	.	.
.	.	(32a\	.	32cc\	.	.	.	.	.	.	.
.	.	32g\JJJ)	.	32bn\JJJ)	.	.	.	.	.	.	.
.	.	.	.	8qqb/	.	.	.	.	.	.	.
.	.	8a\|	.	8cc\	.	8r	.	.	.	.	.
.	.	8r	.	8r	.	(32dd\LLL	.	.	.	.	.
.	.	.	.	.	.	32ee-\)	.	.	.	.	.
.	.	.	.	.	.	(32een\	.	.	.	.	.
.	.	.	.	.	.	32ff\JJJ)	.	.	.	.	.
=8	=8	=8	=8	=8	=8	=8	=8	=8	=8	=8	=8
.	.	8r	.	8r	.	8ff\|	.	2ryy	2ryy	2ryy	2ryy
.	.	(32g\LLL	.	(32b-/LLL	.	8r	.	.	.	.	.
.	.	32f\)	.	32a/	.	.	.	.	.	.	.
.	.	(32f\	.	32a/	.	.	.	.	.	.	.
.	.	32en\JJJ)	.	32g/JJJ)	.	.	.	.	.	.	.
.	.	8f\|	.	8a/|	.	8r	p	.	.	.	.
.	.	8r	.	8r	p	(32a\LLL	.	.	.	.	.
.	.	.	.	.	.	32b-\)	.	.	.	.	.
.	.	.	.	.	.	(32b-\	.	.	.	.	.
.	.	.	.	.	.	32cc\JJJ)	.	.	.	.	.
=9	=9	=9	=9	=9	=9	=9	=9	=9	=9	=9	=9
4r	.	4r	.	32a\LLL|	<	(32cc\LLL	<	2ryy	2ryy	2ryy	2ryy
.	.	.	.	32f\|	.	32dd\)	.	.	.	.	.
.	.	.	.	32b-\|	.	(32dd\	.	.	.	.	.
.	.	.	.	32g\JJJ|	.	32een\JJJ)	.	.	.	.	.
.	.	.	.	32cc\LLL|	.	(32ee\LLL	.	.	.	.	.
.	.	.	.	32a\|	.	32ff\)	.	.	.	.	.
.	.	.	.	32dd\|	.	(32ff\	.	.	.	.	.
.	.	.	.	32b-\JJJ|	.	32gg\JJJ)	.	.	.	.	.
8r	.	8r	.	32een\LLL|	.	(32gg\LLL	.	.	.	.	.
.	.	.	.	32cc\|	.	32aa\)	.	.	.	.	.
.	.	.	.	32ff\|	.	(32aa\	.	.	.	.	.
.	.	.	.	32dd\JJJ|	.	32bb-\JJJ)	.	.	.	.	.
!	!	!	!	!	!	!LO:TX:a:t=problem&colon; takt przepełniony ostatnie cztery miary 16	!	!	!	!	!
16r	.	16r	.	32gg\LLL|	.	(32bbn\LLL	.	.	.	.	.
.	.	.	.	32ee\|	.	32ccc\)	.	.	.	.	.
16Bn\	f	16bn\	f	32aa\|	.	(32ccc\	.	.	.	.	.
.	.	.	.	32ff\JJJ|	.	32ddd\JJJ)	.	.	.	.	.
!LO:LB:g=original	!	!	!	!	!	!	!	!	!	!	!
=10	=10	=10	=10	=10	=10	=10	=10	=10	=10	=10	=10
!LO:TX:a:t=P:problem=mixed beam	!	!LO:TX:a:t=P:problem=mixed beam	!	!	!	!	!	!	!	!	!
8c\L	.	8cc\L	.	4dd\	f	4ff\	f	2ryy	2ryy	2ryy	2ryy
8D/J	.	8c/J	.	.	.	.	.	.	.	.	.
8c\	.	8cc\	.	8cc\	.	8een\	.	.	.	.	.
8r	.	8r	.	8r	.	8r	.	.	.	.	.
=11	=11	=11	=11	=11	=11	=11	=11	=11	=11	=11	=11
!	!	!LO:TX:a:t=1	!	!LO:TX:a:t=1	!	!	!	!	!	!	!
2r	.	2r	.	2r	.	(16.cc\LL	p	2ryy	2ryy	2ryy	2ryy
.	.	.	.	.	.	32dd-X\JJk)	.	.	.	.	.
.	.	.	.	.	.	(32cc\LLL	.	.	.	.	.
.	.	.	.	.	.	32dd-\	.	.	.	.	.
.	.	.	.	.	.	32cc\	.	.	.	.	.
.	.	.	.	.	.	32dd-\JJJ)	.	.	.	.	.
.	.	.	.	.	.	16cc\LL|	.	.	.	.	.
.	.	.	.	.	.	(16ff\	.	.	.	.	.
.	.	.	.	.	.	16ee-X\	.	.	.	.	.
.	.	.	.	.	.	16dd-X\JJ)	.	.	.	.	.
!	!	!	!	!LO:LB:g=original	!	!LO:LB:g=original	!	!	!	!	!
=12	=12	=12	=12	=12	=12	=12	=12	=12	=12	=12	=12
!	!LO:DY:a	!	!	!	!	!	!	!	!	!	!
(16.C/LL	p	(16.c/LL	p	16a/LL	.	(16cc\LL	.	2ryy	2ryy	2ryy	2ryy
.	.	.	.	16g/JJ	p	16b-\JJ)	.	.	.	.	.
32D-X/JJk)	.	32d-X/JJk)	.	.	.	.	.	.	.	.	.
(32C/LLL	.	(32c/LLL	.	4g/	.	4cc\	.	.	.	.	.
32D-/	.	32d-/	.	.	.	.	.	.	.	.	.
32C/	.	32c/	.	.	.	.	.	.	.	.	.
32D-/JJJ)	.	32d-/JJJ)	.	.	.	.	.	.	.	.	.
!	!	!LO:LB:g=original	!	!	!	!	!	!	!	!	!
(16.C/LL	.	(16.c/LL	.	.	.	.	.	.	.	.	.
32D-/JJk)	.	32d-/JJk)	.	.	.	.	.	.	.	.	.
(32D-/LLL	.	(32d-/LLL	.	16.g/LL	.	16.een\LL	.	.	.	.	.
32E-/	.	32e-/	.	.	.	.	.	.	.	.	.
32D-/	.	32d-/	.	.	.	.	.	.	.	.	.
32C/JJJ)	.	32c/JJJ)	.	32g/JJk	.	32ee\JJk	.	.	.	.	.
=13	=13	=13	=13	=13	=13	=13	=13	=13	=13	=13	=13
4AA-X/	.	4A-X/	.	4f/	.	16ff\LL	.	2ryy	2ryy	2ryy	2ryy
.	.	.	.	.	.	16aa-X\	.	.	.	.	.
.	.	.	.	.	.	16ff\	.	.	.	.	.
.	.	.	.	.	.	16dd-X\JJ	.	.	.	.	.
8r	.	8r	.	8r	.	(16dd-\LL	.	.	.	.	.
.	.	.	.	.	.	16cc\)	.	.	.	.	.
[8D-X\	.	8d-X\	.	8f/	.	(16cc\	.	.	.	.	.
.	.	.	.	.	.	16bn\JJ)	.	.	.	.	.
=14	=14	=14	=14	=14	=14	=14	=14	=14	=14	=14	=14
(16D-\LL]	.	(16d-X\LL	.	(4f/	.	4bn\	.	2ryy	2ryy	2ryy	2ryy
32C\L	.	32c\L	.	.	.	.	.	.	.	.	.
32D-X\JJJ)	.	32d-\JJJ)	.	.	.	.	.	.	.	.	.
(32C\LLL	.	(32c\LLL	.	.	.	.	.	.	.	.	.
32D-\	.	32d-\	.	.	.	.	.	.	.	.	.
32C\	.	32c\	.	.	.	.	.	.	.	.	.
32D-\JJJ)	.	32d-\JJJ)	.	.	.	.	.	.	.	.	.
8C\	.	8c\	.	8en/)	.	8cc\	.	.	.	.	.
(32En\LLL	.	(32en\LLL	.	8r	.	32bb-\LLL	.	.	.	.	.
32F\	.	32f\	.	.	.	(32aa\	.	.	.	.	.
32G\	.	32g\	.	.	.	32gg\	.	.	.	.	.
32A\JJJ)	.	32a\JJJ)	.	.	.	32ff\JJJ)	.	.	.	.	.
!LO:LB:g=original	!	!	!	!	!	!	!	!	!	!	!
=15	=15	=15	=15	=15	=15	=15	=15	=15	=15	=15	=15
(16.B-\LL	f	(16.b-\LL	f	(32c/LLL	f.	16.een\LL	f	2ryy	2ryy	2ryy	2ryy
.	.	.	.	32en/	.	.	.	.	.	.	.
.	.	.	.	32g/	.	.	.	.	.	.	.
32A\JJk)	.	32a\JJk)	.	32e/JJJ)	.	32ff\JJk	.	.	.	.	.
16G\LL|	p	16g\LL|	p	(32c/LLL	.	16gg\LL|	p	.	.	.	.
.	.	.	.	32f/	.	.	.	.	.	.	.
16F\JJ|	.	16f\JJ|	.	32a/	.	16aa\JJ|	.	.	.	.	.
.	.	.	.	32f/JJJ)	.	.	.	.	.	.	.
16En\LL|	.	16en\LL|	.	(32c/LLL	.	32bb-\LLL	.	.	.	.	.
.	.	.	.	32e/	.	(32gg\	.	.	.	.	.
!LO:TX:a:t=P:problem=mixed beam	!	!LO:TX:a:t=P:problem=mixed beam	!	!	!	!	!	!	!	!	!
16D\|	.	16d\|	.	32g/	.	32ee\	.	.	.	.	.
.	.	.	.	32e/JJJ)	.	32gg\JJJ)	.	.	.	.	.
16F\|	.	16f\|	.	(32c/LLL	p	16ff\LL|	.	.	.	.	.
.	.	.	.	32f/	.	.	.	.	.	.	.
16FF\JJ|	.	16F/JJ|	.	32a/	.	16aa\JJ|	.	.	.	.	.
.	.	.	.	32f/JJJ)	.	.	.	.	.	.	.
=16	=16	=16	=16	=16	=16	=16	=16	=16	=16	=16	=16
16.B-\LL	f	(16.b-\LL	f	(32c/LLL	f.	16.een\LLyy	f	2ryy	2ryy	2ryy	2ryy
.	.	.	.	32en/	.	.	.	.	.	.	.
.	.	.	.	32g/	.	.	.	.	.	.	.
32A\JJk	.	32a\JJk)	.	32e/JJJ)	.	32ff\JJkyy	.	.	.	.	.
16G\LL|	p	16g\LL|	p	(32c/LLL	.	16gg\LLyy|	p	.	.	.	.
.	.	.	.	32f/	.	.	.	.	.	.	.
16F\JJ|	.	16f\JJ|	.	32a/	.	16aa\JJyy|	.	.	.	.	.
.	.	.	.	32f/JJJ)	.	.	.	.	.	.	.
16En\LL|	.	16en\LL|	.	(32c/LLL	.	32bb-\LLLyy	.	.	.	.	.
.	.	.	.	32e/	.	(32gg\yy	.	.	.	.	.
!LO:TX:a:t=P:problem=mixed beam	!	!LO:TX:a:t=P:problem=mixed beam	!	!	!	!	!	!	!	!	!
16D\|	.	16d\|	.	32g/	.	32ee\yy	.	.	.	.	.
.	.	.	.	32e/JJJ)	.	32gg\JJJ)yy	.	.	.	.	.
16F\|	.	16f\|	.	(32c/LLL	p	16ff\LLyy|	.	.	.	.	.
.	.	.	.	32f/	.	.	.	.	.	.	.
16FF\JJ|	.	16F\JJ|	.	32a/	.	16aa\JJyy|	.	.	.	.	.
.	.	.	.	32f/JJJ)	.	.	.	.	.	.	.
!	!	!LO:LB:g=original	!	!	!	!	!	!	!	!	!
=17	=17	=17	=17	=17	=17	=17	=17	=17	=17	=17	=17
!	!	!LO:TX:a:t=1	!	!	!	!	!	!	!	!	!
2r	.	2r	.	16r	.	16r	.	2ryy	2ryy	2ryy	2ryy
.	.	.	.	16aa'\LL	p	16ccc'\LL	p	.	.	.	.
.	.	.	.	16gg'\	.	16bb-'\	.	.	.	.	.
.	.	.	.	16ff'\JJ	.	16aa'\JJ	.	.	.	.	.
!	!	!	!	!LO:LB:g=original	!	!	!	!	!	!	!
.	.	.	.	16een'\LL	.	16gg'\LL	.	.	.	.	.
.	.	.	.	16dd'\	.	16ff'\	.	.	.	.	.
.	.	.	.	16cc'\	.	16een'\	.	.	.	.	.
.	.	.	.	16b-'\JJ	.	16dd'\JJ	.	.	.	.	.
=18	=18	=18	=18	=18	=18	=18	=18	=18	=18	=18	=18
*	*	*	*	*^	*	*	*	*	*	*	*
(16.C/LL	f	(16.c/LL	f	8.b-/L	8.g\	f	(16.b-\LL 16.een\	.	2ryy	2ryy	2ryy	2ryy
32D-X/JJk)	.	32d-X/JJk)	.	.	.	.	32gg\L	.	.	.	.	.
(32C/LLL	.	(32c/LLL	.	.	.	.	32bb-\)	.	.	.	.	.
32D-X/	.	32d-/	.	.	.	.	32gg\JJJ	.	.	.	.	.
!	!	!	!	!	!	!	!LO:LB:g=original	!	!	!	!	!
32C/	.	32c/	.	16g/Jk	16ryy	.	8.ff\L|	.	.	.	.	.
32BB-/JJJ)	.	32B-/JJJ)	.	.	.	.	.	.	.	.	.	.
16AA/LL	p	16A/LL	p	16a/LL	4ryy	p	.	.	.	.	.	.
16F/	.	16f\	.	16fT/	.	.	.	.	.	.	.	.
16AA/	.	16A/	.	16f/	.	.	(32ff\LL	.	.	.	.	.
.	.	.	.	.	.	.	32cc\)	.	.	.	.	.
16F/JJ	.	16f\JJ	.	16f/JJ	.	.	(32ff\	.	.	.	.	.
.	.	.	.	.	.	.	32cc\JJJ)	.	.	.	.	.
*	*	*	*	*v	*v	*	*	*	*	*	*	*
=19	=19	=19	=19	=19	=19	=19	=19	=19	=19	=19	=19
16BB-/LL	.	16B-\LL	.	16fT/LL	.	(16cc#X\LL	.	2ryy	2ryy	2ryy	2ryy
16F/	.	16f\	.	16f/	.	16dd\JJ)	.	.	.	.	.
16BB-/	.	16B-\	.	16f/	.	16r	.	.	.	.	.
16F/JJ	.	16f\JJ	.	16f/JJ	.	16r	.	.	.	.	.
16C/LL	.	16c\LL	.	16a/LL	.	16dd\	.	.	.	.	.
*	*	*	*	*	*	*Xtuplet	*	*	*	*	*
16F/JJ	.	16f\	.	16f/JJ	.	24cc#\LL|	.	.	.	.	.
.	.	.	.	.	.	24a\|	.	.	.	.	.
!	!	!LO:TX:a:t=P:problem=mixed beam	!	!	!	!	!	!	!	!	!
.	.	.	.	8qqa/	.	.	.	.	.	.	.
16C/LL	.	16c\	.	16g/LL	.	.	.	.	.	.	.
.	.	.	.	.	.	8qqb-/	.	.	.	.	.
.	.	.	.	.	.	24b-\	.	.	.	.	.
16CC/JJ	.	16C/JJ	.	(32f/L	.	32a\L	.	.	.	.	.
.	.	.	.	32en/JJJ)	.	32g\JJJ	.	.	.	.	.
!LO:LB:g=original	!	!	!	!	!	!	!	!	!	!	!
=20	=20	=20	=20	=20	=20	=20	=20	=20	=20	=20	=20
!	!	!	!	!	!	!LO:N:vis=16.	!	!	!	!	!
16FF/LL	f	16F/LL	f	(16f/LL	f	16ff\LL|	f	2ryy	2ryy	2ryy	2ryy
!LO:TX:a:t=P:problem=mixed beam	!	!LO:TX:a:t=P:problem=mixed beam	!	!	!	!	!	!	!	!	!
16F\	.	16f\	.	16a/	.	(32gg\L	.	.	.	.	.
.	.	.	.	.	.	64aa\L	.	.	.	.	.
.	.	.	.	.	.	64gg\JJJJ)	.	.	.	.	.
16AA\	.	16A/	.	16cc/	.	32ff'\LLL	.	.	.	.	.
.	.	.	.	.	.	32ff'\	.	.	.	.	.
16F\JJ	.	16f\JJ	.	16a/JJ)	.	32ff'\	.	.	.	.	.
.	.	.	.	.	.	32ff'\JJJ	.	.	.	.	.
16AA\LL	.	16A\LL	.	(16cc/LL	.	(16ff\LL	.	.	.	.	.
16F\	.	16f\	.	16a/	.	32gg\L	.	.	.	.	.
.	.	.	.	.	.	64aa\L)	.	.	.	.	.
.	.	.	.	.	.	64gg\JJJJ	.	.	.	.	.
16AA\	.	16A\	.	16cc/	.	32ff'\LLL	.	.	.	.	.
.	.	.	.	.	.	32ff'\	.	.	.	.	.
16F\JJ	.	16f\JJ	.	16a/JJ)	.	32ff'\	.	.	.	.	.
.	.	.	.	.	.	32ff'\JJJ	.	.	.	.	.
=21	=21	=21	=21	=21	=21	=21	=21	=21	=21	=21	=21
16BB-\LL	.	16B-\LL	.	16f/LL	p	(16ff\LL	p	2ryy	2ryy	2ryy	2ryy
16F\	.	16f\	.	16f/	.	16dd\JJ)	.	.	.	.	.
16BB-\	.	16B-\	.	16f/	.	16r	.	.	.	.	.
16F\JJ	.	16f\JJ	.	16f/JJ	.	16r	.	.	.	.	.
16C\LL	.	16c\LL	.	16a/LL	.	16dd\	.	.	.	.	.
!LO:TX:a:t=P:problem=mixed beam	!	!LO:TX:a:t=P:problem=mixed beam	!	!	!	!	!	!	!	!	!
16F\	.	16f\	.	16f/JJ	.	24cc`\LL	.	.	.	.	.
.	.	.	.	.	.	24a`\	.	.	.	.	.
.	.	.	.	8qqa/	.	.	.	.	.	.	.
16C\	.	16c\	.	16g/LL	.	.	.	.	.	.	.
.	.	.	.	.	.	8qqcc/	.	.	.	.	.
.	.	.	.	.	.	24b-\	.	.	.	.	.
16CC/JJ	.	16C/JJ	.	32f/L	.	32a\L	.	.	.	.	.
.	.	.	.	32en/JJJ	.	32g\JJJ	.	.	.	.	.
=	=	=	=	=	=	=	=	=	=	=	=
!LO:TX:a:t=P:problem=mixed beam	!	!LO:TX:a:t=P:problem=mixed beam	!	!	!	!	!	!	!	!	!
!	!LO:DY:t=for	!	!	!	!	!	!	!	!	!	!
8FF/L	f	8F/L	.	4en/	.	(4g/	.	4ryy	4ryy	4ryy	4ryy
8F\J	.	8f\J	.	.	.	.	.	.	.	.	.
8FF/	.	8F/	.	8f/	.	8f/)	.	8ryy	8ryy	8ryy	8ryy
=22:|!|:	=22:|!|:	=22:|!|:	=22:|!|:	=22:|!|:	=22:|!|:	=22:|!|:	=22:|!|:	=22:|!|:	=22:|!|:	=22:|!|:	=22:|!|:
8r	.	8r	.	8r	.	(32f/LLL	.	8ryy	8ryy	8ryy	8ryy
.	.	.	.	.	.	32g/	.	.	.	.	.
.	.	.	.	.	.	32f/	.	.	.	.	.
.	.	.	.	.	.	32g/JJJ)	.	.	.	.	.
!	!	!	!	!LO:LB:g=original	!	!LO:LB:g=original	!	!	!	!	!
=23	=23	=23	=23	=23	=23	=23	=23	=23	=23	=23	=23
8F\|	p	8f\|	.	8r	.	8a/	.	2ryy	2ryy	2ryy	2ryy
8r	.	8r	.	(32f/LLL	.	(32a/LLL	.	.	.	.	.
.	.	.	.	32g/	.	32b-/	.	.	.	.	.
.	.	.	.	32f/	.	32a/	.	.	.	.	.
.	.	.	.	32g/JJJ)	.	32b-/JJJ)	.	.	.	.	.
8F\|	.	8f\	.	8a/	.	8cc\|	.	.	.	.	.
8r	.	8r	.	(32b-/LLL	.	(32dd\LLL	.	.	.	.	.
.	.	.	.	32g/	.	32een\	.	.	.	.	.
.	.	.	.	32b-/	.	32dd\	.	.	.	.	.
.	.	.	.	32g/JJJ)	.	32ee\JJJ)	.	.	.	.	.
=24	=24	=24	=24	=24	=24	=24	=24	=24	=24	=24	=24
8F\L	.	8f\L	.	8a/	.	8ff\|	.	2ryy	2ryy	2ryy	2ryy
(32F\LL	.	(32f\LL	.	(32a/LLL	.	8r	.	.	.	.	.
32G\	.	32g\	.	32b-/	.	.	.	.	.	.	.
32F\	.	32f\	.	32a/	.	.	.	.	.	.	.
32G\JJJ)	.	32g\JJJ)	.	32b-/JJJ)	.	.	.	.	.	.	.
8A\|	.	8a\	.	8cc\|	.	8r	.	.	.	.	.
8r	.	8r	.	8r	.	(32ff\LLL	.	.	.	.	.
.	.	.	.	.	.	32een\	.	.	.	.	.
.	.	.	.	.	.	32dd\	.	.	.	.	.
.	.	.	.	.	.	32cc#X\JJJ)	.	.	.	.	.
!LO:LB:g=original	!	!	!	!	!	!	!	!	!	!	!
=25	=25	=25	=25	=25	=25	=25	=25	=25	=25	=25	=25
!LO:TX:a:t=2	!	!LO:TX:a:t=2	!	!	!	!	!	!	!	!	!
!LO:N:vis=0	!	!LO:N:vis=0	!	!	!	!	!	!	!	!	!
1r	.	1r	.	8r	.	8dd\|	.	2ryy	2ryy	2ryy	2ryy
.	.	.	.	(32b-\LLL	.	8r	.	.	.	.	.
.	.	.	.	32a\	.	.	.	.	.	.	.
.	.	.	.	32b-\	.	.	.	.	.	.	.
.	.	.	.	32a\JJJ)	.	.	.	.	.	.	.
.	.	.	.	8b-/	.	8r	.	.	.	.	.
.	.	.	.	8r	.	(32dd\LLL	.	.	.	.	.
.	.	.	.	.	.	32cc\	.	.	.	.	.
.	.	.	.	.	.	32b-\	.	.	.	.	.
.	.	.	.	.	.	32a\JJJ)	.	.	.	.	.
=26	=26	=26	=26	=26	=26	=26	=26	=26	=26	=26	=26
.	.	.	.	8r	.	8b-\	.	2ryy	2ryy	2ryy	2ryy
.	.	.	.	32g/LLL	.	8r	.	.	.	.	.
.	.	.	.	32f#X/	.	.	.	.	.	.	.
.	.	.	.	32g/	.	.	.	.	.	.	.
.	.	.	.	32f#/JJJ	.	.	.	.	.	.	.
.	.	.	.	8g/	.	4r	.	.	.	.	.
.	.	.	.	8r	.	.	.	.	.	.	.
=27	=27	=27	=27	=27	=27	=27	=27	=27	=27	=27	=27
!LO:TX:a:t=P:problem=mixed beam	!	!LO:TX:a:t=P:problem=mixed beam	!	!	!	!	!	!	!	!	!
16FF/LL	f	16F/LL	f	16.f/LL 16.a/	.	16.f/LL 16.a/ 16.ff/	f	2ryy	2ryy	2ryy	2ryy
16F\	.	16f\	.	.	.	.	.	.	.	.	.
.	.	.	.	32f/JJk 32a/	.	32cc/JJk	.	.	.	.	.
16FF/	.	16F/	.	32.f/LLL 32.a/	.	32.ff\LLL	.	.	.	.	.
.	.	.	.	64f/K 64a/	.	64cc\K	.	.	.	.	.
16F\JJ	.	16f\JJ	.	32.f/ 32.a/	.	32.ff\	.	.	.	.	.
.	.	.	.	64f/JJJk 64a/	.	64cc\JJJk	.	.	.	.	.
!	!	!	!	!	!	!LO:TX:a:t=P:problem=mixed beam	!	!	!	!	!
16FF/LL	.	16F/LL	.	16a/LL	.	16ff\LL	.	.	.	.	.
16AA/	.	16A/	.	16A/JJ	.	16f/JJ	.	.	.	.	.
.	.	.	.	8qqc/	.	.	.	.	.	.	.
16C/	.	16c/	.	(16B-/LL	.	(16g/LL	.	.	.	.	.
16CC/JJ	.	16c/JJ	.	32A/L	.	32f/L	.	.	.	.	.
.	.	.	.	32G/JJJ)	.	32e-/JJJ)	.	.	.	.	.
!	!	!	!	!LO:LB:g=original	!	!	!	!	!	!	!
=28	=28	=28	=28	=28	=28	=28	=28	=28	=28	=28	=28
!LO:TX:a:t=P:problem=mixed beam	!	!LO:TX:a:t=P:problem=mixed beam	!	!	!	!	!	!	!	!	!
8FF/L	.	8F/L	.	(4G/	.	(4en/	.	2ryy	2ryy	2ryy	2ryy
8F\J	.	8f\J	.	.	.	.	.	.	.	.	.
8FF/	.	8F/	.	8A/)	.	8f/)	.	.	.	.	.
8r	.	32d\LLL	.	(32b-\LLL	.	8r	.	.	.	.	.
.	.	32e-\	.	32cc\	.	.	.	.	.	.	.
.	.	32d\	.	32b-\	.	.	.	.	.	.	.
.	.	32e-\JJJ	.	32cc\JJJ)	p	.	.	.	.	.	.
!	!	!	!	!	!	!LO:LB:g=original	!	!	!	!	!
=29	=29	=29	=29	=29	=29	=29	=29	=29	=29	=29	=29
8r	.	8f\	.	8dd\	.	8r	.	2ryy	2ryy	2ryy	2ryy
(32d\LLL	p	8r	.	8r	.	(32ff\LLL	.	.	.	.	.
32c\	.	.	.	.	.	32ee-X\	.	.	.	.	.
32d\	.	.	.	.	.	32ff\	.	.	.	.	.
32c\JJJ)	.	.	.	.	.	32ee-\JJJ)	.	.	.	.	.
8B-\|	.	8r	.	8r	.	8dd\|	.	.	.	.	.
8r	.	(32d\LLL	.	(32b-\LLL	.	8r	.	.	.	.	.
.	.	32e-\	.	32cc\	.	.	.	.	.	.	.
.	.	32d\	.	32b-\	.	.	.	.	.	.	.
.	.	32e-\JJJ)	.	32cc\JJJ)	.	.	.	.	.	.	.
=30	=30	=30	=30	=30	=30	=30	=30	=30	=30	=30	=30
8r	.	8f\|	.	8dd\|	.	8r	.	2ryy	2ryy	2ryy	2ryy
(32d\LLL	.	8r	.	8r	.	(32ff\LLL	.	.	.	.	.
32c\	.	.	.	.	.	32ee-\	.	.	.	.	.
32d\	.	.	.	.	.	32ff\	.	.	.	.	.
32c\JJJ)	.	.	.	.	.	32ee-\JJJ)	.	.	.	.	.
8B-\	.	4r	.	8r	.	8dd\|	.	.	.	.	.
8r	.	.	.	32d/LLL	.	(32b-\LLL	.	.	.	.	.
.	.	.	.	32e-/	.	32cc\	.	.	.	.	.
.	.	.	.	32d/	.	32b-\	.	.	.	.	.
.	.	.	.	32f/JJJ	.	32cc\JJJ)	.	.	.	.	.
!	!	!LO:LB:g=original	!	!	!	!	!	!	!	!	!
=31	=31	=31	=31	=31	=31	=31	=31	=31	=31	=31	=31
!	!	!LO:TX:a:t=1	!	!	!	!	!	!	!	!	!
2r	.	2r	.	(32b-\LLL	.	(32dd\LLL	<	2ryy	2ryy	2ryy	2ryy
.	.	.	.	32cc\	.	32ee-\	.	.	.	.	.
.	.	.	.	32b-\	.	32dd\	.	.	.	.	.
.	.	.	.	32cc\JJJ)	.	32ee-\JJJ)	.	.	.	.	.
.	.	.	.	(32dd\LLL	.	(32ff\LLL	.	.	.	.	.
.	.	.	.	32ee-\	.	32gg\	.	.	.	.	.
.	.	.	.	32dd\	<	32ff\	.	.	.	.	.
.	.	.	.	32ee-\JJJ)	.	32gg\JJJ)	.	.	.	.	.
.	.	.	.	(32ff\LLL	.	(32aa-X\LLL	.	.	.	.	.
.	.	.	.	32ee-\	.	32gg\	.	.	.	.	.
.	.	.	.	32ff\	.	32aa-\	.	.	.	.	.
.	.	.	.	32ee-\JJJ)	.	32gg\JJJ)	.	.	.	.	.
.	.	.	.	(32ff\LLL	.	(32aa-\LLL	.	.	.	.	.
.	.	.	.	32dd\	.	32ff\	.	.	.	.	.
.	.	.	.	32a-X\	.	32dd\	.	.	.	.	.
.	.	.	.	32f\JJJ)	.	32cc\JJJ)	.	.	.	.	.
!LO:LB:g=original	!	!	!	!	!	!	!	!	!	!	!
=32	=32	=32	=32	=32	=32	=32	=32	=32	=32	=32	=32
*	*	*	*	*	*	*2\right	*	*	*	*	*
!	!	!	!	!	!LO:DY:rj	!	!	!	!	!	!
(32F\LLL	.	(32f\LLL	f	2d/	f	2bn\	f	2ryy	2ryy	2ryy	2ryy
32G\	.	32g\	.	.	.	.	.	.	.	.	.
32F\	.	32f\	.	.	.	.	.	.	.	.	.
32G\JJJ)	.	32g\JJJ)	.	.	.	.	.	.	.	.	.
(32A-X\LLL	.	(32a-X\LLL	.	.	.	.	.	.	.	.	.
32G\	.	32g\	.	.	.	.	.	.	.	.	.
32A-\	.	32a-\	.	.	.	.	.	.	.	.	.
32G\JJJ)	.	32g\JJJ)	.	.	.	.	.	.	.	.	.
(32A-\LLL	.	(32a-\LLL	.	.	.	.	.	.	.	.	.
32G\	.	32g\)	.	.	.	.	.	.	.	.	.
32G\	.	(32g\	.	.	.	.	.	.	.	.	.
32F\JJJ)	.	32f\JJJ)	.	.	.	.	.	.	.	.	.
(32A-\LLL	.	(32a-\LLL	.	.	.	.	.	.	.	.	.
32G\	.	32g\)	.	.	.	.	.	.	.	.	.
32G\	.	(32g\	.	.	.	.	.	.	.	.	.
32F\JJJ)	.	32f\JJJ)	.	.	.	.	.	.	.	.	.
=33	=33	=33	=33	=33	=33	=33	=33	=33	=33	=33	=33
!	!	!	!	!	!LO:DY:rj	!	!	!	!	!	!
4En\	.	4en\	.	8c/	p	(32cc\LLL	p	2ryy	2ryy	2ryy	2ryy
.	.	.	.	.	.	32dd\	.	.	.	.	.
.	.	.	.	.	.	32cc\	.	.	.	.	.
.	.	.	.	.	.	32dd\JJJ)	.	.	.	.	.
.	.	.	.	(32cc\LLL	<	(32een\LLL	<	.	.	.	.
.	.	.	.	32dd\	.	32ff\	.	.	.	.	.
.	.	.	.	32cc\	.	32ee\	.	.	.	.	.
.	.	.	.	32dd\JJJ)	.	32ff\JJJ)	.	.	.	.	.
4r	.	4r	.	(32ee-\LLL	.	(32gg\LLL	.	.	.	.	.
.	.	.	.	32ff\	.	32aa\	.	.	.	.	.
.	.	.	.	32ee-\	.	32gg\	.	.	.	.	.
.	.	.	.	32ff\JJJ)	.	32aa\JJJ)	.	.	.	.	.
!	!	!	!	!LO:LB:g=original	!	!	!	!	!	!	!
.	.	.	.	(32gg\LLL	.	(32bb-\LLL	.	.	.	.	.
.	.	.	.	32een\	.	32gg\	.	.	.	.	.
.	.	.	.	32b-\	.	32ee\	.	.	.	.	.
.	.	.	.	32g\JJJ)	.	32dd\JJJ)	.	.	.	.	.
=34	=34	=34	=34	=34	=34	=34	=34	=34	=34	=34	=34
(32G\LLL	f	(32g\LLL	f	2en/	f	2cc#X\	f	2ryy	2ryy	2ryy	2ryy
32A\	.	32a\)	.	.	.	.	.	.	.	.	.
32G\	.	(32g\	.	.	.	.	.	.	.	.	.
32A\JJJ)	.	32a\JJJ)	.	.	.	.	.	.	.	.	.
(32B-\LLL	.	(32b-\LLL	.	.	.	.	.	.	.	.	.
32A\	.	32a\)	.	.	.	.	.	.	.	.	.
32B-\	.	(32b-\	.	.	.	.	.	.	.	.	.
32A\JJJ)	.	32a\JJJ)	.	.	.	.	.	.	.	.	.
(32B-\LLL	.	(32b-\LLL	.	.	.	.	.	.	.	.	.
32A\	.	32a\)	.	.	.	.	.	.	.	.	.
32A\	.	(32a\	.	.	.	.	.	.	.	.	.
32G\JJJ)	.	32g\JJJ)	.	.	.	.	.	.	.	.	.
(32B-\LLL	.	(32b-\LLL	.	.	.	.	.	.	.	.	.
32A\	.	32a\)	.	.	.	.	.	.	.	.	.
32A\	.	(32a\	.	.	.	.	.	.	.	.	.
32G\JJJ)	.	32g\JJJ)	.	.	.	.	.	.	.	.	.
!	!	!	!	!	!	!LO:LB:g=original	!	!	!	!	!
=35	=35	=35	=35	=35	=35	=35	=35	=35	=35	=35	=35
8F\	.	8f\	.	8d/	.	16dd\LL|	.	2ryy	2ryy	2ryy	2ryy
.	.	.	.	.	.	(16aa\	.	.	.	.	.
8r	.	16r	.	16r	p	16ff\	.	.	.	.	.
.	.	16f\	.	16a/	.	16dd\JJ)	.	.	.	.	.
4r	.	(16e-\LL|	.	16f/LL	.	16r	.	.	.	.	.
.	.	16f\JJ)	.	16d/JJ	.	(16aa\LL	.	.	.	.	.
.	.	16r	.	16r	.	16bb-\	.	.	.	.	.
.	.	16en\	.	16g/	.	16cc#X\JJ)	.	.	.	.	.
=36	=36	=36	=36	=36	=36	=36	=36	=36	=36	=36	=36
!LO:N:vis=00	!	!	!	!	!	!	!	!	!	!	!
0r	.	16c#X\LL	.	(16en/LL	.	16r	.	2ryy	2ryy	2ryy	2ryy
.	.	16e-\JJ	.	16a/JJ)	.	(16cc#X\LL	.	.	.	.	.
.	.	16r	.	16r	.	16dd\	.	.	.	.	.
.	.	(16f\	.	16a/	.	16ff\JJ)	.	.	.	.	.
.	.	16d\LL	.	(16f/LL	.	16r	.	.	.	.	.
.	.	16f\JJ)	.	16d/JJ)	.	(16aa\LL	.	.	.	.	.
.	.	16r	.	16r	.	16bb-\	.	.	.	.	.
.	.	16e\	.	(16g/	.	16cc#X\JJ)	.	.	.	.	.
=37	=37	=37	=37	=37	=37	=37	=37	=37	=37	=37	=37
.	.	16c#X\LL	.	16en/LL	.	16r	.	2ryy	2ryy	2ryy	2ryy
.	.	16e-\JJ	.	16a/JJ)	.	(16cc#X\LL	.	.	.	.	.
.	.	16r	.	16r	.	16dd\	.	.	.	.	.
.	.	(16f\	.	16a/	.	16ff\JJ)	.	.	.	.	.
.	.	16d\LL	.	(16f/LL	.	16r	.	.	.	.	.
.	.	16f\JJ)	.	16d/JJ)	.	(16dd\LL	.	.	.	.	.
.	.	16r	.	16r	.	16ff\	.	.	.	.	.
.	.	16a\	.	16f/	.	16dd\JJ)	.	.	.	.	.
=38	=38	=38	=38	=38	=38	=38	=38	=38	=38	=38	=38
.	.	(16f\LL	.	16a/LL	.	16r	.	2ryy	2ryy	2ryy	2ryy
.	.	16a\JJ)	.	16f/JJ	.	(16ccc\LL	.	.	.	.	.
.	.	16r	.	16r	.	16aa\	.	.	.	.	.
.	.	(16a\	.	16cc\	.	16ff\JJ)	.	.	.	.	.
.	.	16f\LL	.	16a/LL	.	16r	.	.	.	.	.
.	.	16a\JJ)	.	16f/JJ	.	16ccc\LL	.	.	.	.	.
.	.	16r	.	16r	.	(16ddd\	.	.	.	.	.
.	.	16g\	.	16a/	.	16een\JJ)	.	.	.	.	.
!	!	!LO:LB:g=original	!	!LO:LB:g=original	!	!	!	!	!	!	!
=39	=39	=39	=39	=39	=39	=39	=39	=39	=39	=39	=39
.	.	(16en\LL	.	16g\LL	.	16r	.	2ryy	2ryy	2ryy	2ryy
.	.	16g\JJ)	.	16cc\JJ	.	(16een\LL	.	.	.	.	.
.	.	16r	.	16r	.	16ff\	.	.	.	.	.
.	.	(16a\	.	16cc\	.	16aa\JJ)	.	.	.	.	.
.	.	16f\LL	.	16a/LL	.	16r	.	.	.	.	.
.	.	16a\JJ)	.	16f/JJ	.	16ccc\LL	.	.	.	.	.
.	.	16r	.	16r	.	(16ddd\	.	.	.	.	.
.	.	16g\	.	16b-\	.	16een\JJ)	.	.	.	.	.
=40	=40	=40	=40	=40	=40	=40	=40	=40	=40	=40	=40
!	!	!LO:TX:a:t=P:problem=mixed beam	!	!	!	!	!	!	!	!	!
2r	.	(16g\LL	.	16a\LL	.	16r	.	2ryy	2ryy	2ryy	2ryy
.	.	16A/	.	16ffT\	.	(16ff\LL	.	.	.	.	.
.	.	16c/	.	16ff\	.	16aa\	.	.	.	.	.
.	.	16A/JJ)	.	16ff\JJ	.	16ff\JJ)	.	.	.	.	.
!	!	!	!	!LO:TX:b:t=rinf.	!	!	!	!	!	!	!
.	.	16r	.	16ffT\LL	.	16r	.	.	.	.	.
.	.	(16a\LL	.	16ff\	.	16f/LL	.	.	.	.	.
.	.	16cc\	.	16ff\	.	16a/	.	.	.	.	.
.	.	16a\JJ)	.	16ff\JJ	.	16f/JJ	.	.	.	.	.
!LO:LB:g=original	!	!	!	!	!	!LO:LB:g=original	!	!	!	!	!
=41	=41	=41	=41	=41	=41	=41	=41	=41	=41	=41	=41
*	*	*	*	*	*	*^	*	*	*	*	*
!LO:TX:a:t=P:problem=mixed beam	!	!	!	!	!	!	!	!	!	!	!	!
16F\LL	.	16A\LL 16f\	.	16f\LL 16ee-X\	.	16ee-/LL	16ff\LL	<	2ryy	2ryy	2ryy	2ryy
16FF/	.	16A\ 16f\	.	16f\ 16ee-\	.	16ee-/	16ff\	.	.	.	.	.
16AA/	.	16A\ 16f\	.	16f\ 16ee-\	.	16ee-/	16ff\	.	.	.	.	.
16C/JJ	.	16A\JJ 16f\	.	16f\JJ 16ee-\	.	16ee-/JJ	16ff\JJ	.	.	.	.	.
*	*	*tremolo	*	*	*	*tremolo	*tremolo	*	*	*	*	*
16F\LL	.	16A\ 16f\L	.	16cc\LL 16aa\	<	16ee-/L	16ff\L	.	.	.	.	.
16A\	.	16A\ 16f\	.	16cc\ 16aa\	.	16ee-/	16ff\	.	.	.	.	.
16c\	.	16A\ 16f\	.	16cc\ 16aa\	.	16ee-/	16ff\	.	.	.	.	.
16F\JJ	.	16A\ 16f\J	.	16cc\JJ 16aa\	.	16ee-/J	16ff\J	.	.	.	.	.
*	*	*Xtremolo	*	*	*	*Xtremolo	*Xtremolo	*	*	*	*	*
=42	=42	=42	=42	=42	=42	=42	=42	=42	=42	=42	=42	=42
*	*	*	*	*^	*	*	*	*	*	*	*	*
8B-\	.	8A\ 8f\	.	8bb-/	8dd\	.	8ff/	8dd\	.	2ryy	2ryy	2ryy	2ryy
8r	.	(32d\LLL	.	32b-\LLL	8ryy	.	8r	8ryy	.	.	.	.	.
.	.	32e-\	.	32cc\	.	.	.	.	.	.	.	.	.
.	.	32d\	.	32b-\	.	.	.	.	.	.	.	.	.
.	.	32e-\JJJ)	.	32cc\JJJ	.	.	.	.	.	.	.	.	.
8r	.	8f\	.	8dd\	4ryy	.	8re	4ryy	.	.	.	.	.
(32d\LLL	.	8r	.	8r	.	.	(32ff\LLL	.	.	.	.	.	.
32c\	.	.	.	.	.	.	32ee-\	.	.	.	.	.	.
32d\	.	.	.	.	.	.	32ff\	.	.	.	.	.	.
32c\JJJ)	.	.	.	.	.	.	32ee-\JJJ)	.	.	.	.	.	.
*	*	*	*	*v	*v	*	*	*	*	*	*	*	*
*	*	*	*	*	*	*v	*v	*	*	*	*	*
=43	=43	=43	=43	=43	=43	=43	=43	=43	=43	=43	=43
8B-\	.	8r	.	8r	.	8dd\|	.	2ryy	2ryy	2ryy	2ryy
8r	.	(32d\LLL	.	(32b-\LLL	.	8r	.	.	.	.	.
.	.	32e-\	.	32cc\	.	.	.	.	.	.	.
.	.	32d\	.	32b-\	.	.	.	.	.	.	.
.	.	32e-\JJJ)	.	32cc\JJJ)	.	.	.	.	.	.	.
8r	.	8f\	.	8dd\	.	8r	.	.	.	.	.
(32d\LLL	.	8r	.	8r	.	(32ff\LLL	.	.	.	.	.
32c\	.	.	.	.	.	32ee-\	.	.	.	.	.
32d\	.	.	.	.	.	32ff\	.	.	.	.	.
32c\JJJ)	.	.	.	.	.	32ee-\JJJ)	.	.	.	.	.
!	!	!LO:LB:g=original	!	!LO:LB:g=original	!	!	!	!	!	!	!
=44	=44	=44	=44	=44	=44	=44	=44	=44	=44	=44	=44
!	!	!LO:TX:a:t=1	!	!	!	!	!	!	!	!	!
8B-\	.	2r	.	8r	.	8dd\	.	2ryy	2ryy	2ryy	2ryy
8r	.	.	.	(32B-/LLL	.	(32d/LLL	.	.	.	.	.
.	.	.	.	32c/	.	32e-/	.	.	.	.	.
.	.	.	.	32B-/	.	32d/	.	.	.	.	.
.	.	.	.	32c/JJJ)	.	32e-/JJJ)	.	.	.	.	.
4r	.	.	.	8d/	.	8f/	.	.	.	.	.
.	.	.	.	8r	.	(32d/LLL	.	.	.	.	.
.	.	.	.	.	.	32e-/	.	.	.	.	.
.	.	.	.	.	.	32e-/	.	.	.	.	.
.	.	.	.	.	.	32f/JJJ)	.	.	.	.	.
=45	=45	=45	=45	=45	=45	=45	=45	=45	=45	=45	=45
4r	.	4r	.	32d'/LLL	.	(32f/LLL	.	2ryy	2ryy	2ryy	2ryy
.	.	.	.	32B-'/	.	32g/)	.	.	.	.	.
.	.	.	.	32e-'/	.	(32g/	.	.	.	.	.
.	.	.	.	32c'/JJJ	.	32a/JJJ)	.	.	.	.	.
.	.	.	.	32f'/LLL	.	(32a/LLL	.	.	.	.	.
.	.	.	.	32d'/	.	32b-/)	.	.	.	.	.
.	.	.	.	32g'/	.	(32b-/	.	.	.	.	.
.	.	.	.	32e-'/JJJ	.	32cc/JJJ)	.	.	.	.	.
8r	.	8r	.	32a'/LLL	<	(32cc\LLL	.	.	.	.	.
.	.	.	.	32f'/	.	32dd\)	.	.	.	.	.
.	.	.	.	32b-'/	.	(32dd\	.	.	.	.	.
.	.	.	.	32g'/JJJ	.	32ee-\JJJ)	.	.	.	.	.
16r	.	16r	.	32cc'/LLL	.	(32een\LLL	.	.	.	.	.
.	.	.	.	32a'/	.	32ff\)	.	.	.	.	.
16En\	f	16en\	f	32dd'/	.	(32ff#X\	.	.	.	.	.
.	.	.	.	32b-'/JJJ	.	32gg\JJJ)	.	.	.	.	.
!LO:LB:g=original	!	!	!	!	!	!LO:LB:g=original	!	!	!	!	!
=46	=46	=46	=46	=46	=46	=46	=46	=46	=46	=46	=46
!LO:TX:a:t=P:problem=mixed beam	!	!LO:TX:a:t=P:problem=mixed beam	!	!	!	!	!	!	!	!	!
8F\L	.	8f\L	.	4g/	.	(4b-/	.	2ryy	2ryy	2ryy	2ryy
8FF/J	.	8F/J	.	.	.	.	.	.	.	.	.
8F\	.	8f\	.	8f/	.	8a/)	f	.	.	.	.
8r	.	8r	.	8r	.	8r	.	.	.	.	.
=47	=47	=47	=47	=47	=47	=47	=47	=47	=47	=47	=47
!	!	!LO:TX:a:t=1	!	!	!	!	!	!	!	!	!
2r	.	2r	.	2r	.	(16.ff\LL	.	2ryy	2ryy	2ryy	2ryy
.	.	.	.	.	.	32gg-X\JJk)	p	.	.	.	.
.	.	.	.	.	.	(32ff\LLL	.	.	.	.	.
.	.	.	.	.	.	32gg-\	.	.	.	.	.
.	.	.	.	.	.	32ff\	.	.	.	.	.
.	.	.	.	.	.	32gg-\JJJ)	.	.	.	.	.
.	.	.	.	.	.	16ff\LL	.	.	.	.	.
.	.	.	.	.	.	16bb-\	.	.	.	.	.
.	.	.	.	.	.	(16aa-X\	.	.	.	.	.
.	.	.	.	.	.	16gg-\JJ)	.	.	.	.	.
=48	=48	=48	=48	=48	=48	=48	=48	=48	=48	=48	=48
(16.F\LL	p	16.f\LL	.	(16dd-X\LL	p	(16ff\LL	.	2ryy	2ryy	2ryy	2ryy
.	.	.	.	16cc\JJ)	.	16ee-\JJ	.	.	.	.	.
32G-X\JJk)	.	32g-X\JJk	.	.	.	.	.	.	.	.	.
(32F\LLL	.	(32f\LLL	.	4cc\	.	4ee-\)	.	.	.	.	.
32G-\	.	32g-\)	.	.	.	.	.	.	.	.	.
!	!	!	!LO:DY:a	!	!	!	!	!	!	!	!
32F\	.	(32f\	f	.	.	.	.	.	.	.	.
32G-\JJJ)	.	32g-\JJJ)	.	.	.	.	.	.	.	.	.
(16.F\LL	.	(16.f\LL	.	.	.	.	.	.	.	.	.
32G-X\JJk)	.	32g-\JJk)	.	.	.	.	.	.	.	.	.
(32F\LLL	.	(32f\LLL	.	16.cc\LL	.	16.aan\LL	.	.	.	.	.
32G-X\	.	32g-\	.	.	.	.	.	.	.	.	.
32F\	.	32f\	.	.	.	.	.	.	.	.	.
32E-\JJJ)	.	32e-\JJJ)	.	32cc\JJk	.	32aa\JJk	.	.	.	.	.
=49	=49	=49	=49	=49	=49	=49	=49	=49	=49	=49	=49
!	!	!	!LO:DY:a	!	!	!	!	!	!	!	!
4D-X\	.	4d-X\	p	4cc\	.	16bb-\LL|	.	2ryy	2ryy	2ryy	2ryy
.	.	.	.	.	.	(16ddd-X\	.	.	.	.	.
.	.	.	.	.	.	16bb-\	.	.	.	.	.
.	.	.	.	.	.	16gg-X\JJ)	.	.	.	.	.
8r	.	8r	.	8r	.	(16gg-\LL	.	.	.	.	.
.	.	.	.	.	.	16ff\)	.	.	.	.	.
[8G-X\	.	[8g-X\	.	8b-\	.	(16ff\	.	.	.	.	.
.	.	.	.	.	.	16een\JJ)	.	.	.	.	.
=50	=50	=50	=50	=50	=50	=50	=50	=50	=50	=50	=50
16G-\LL]	.	16g-X\LL]	.	4b-\	.	(4een\	.	2ryy	2ryy	2ryy	2ryy
(32F\L	.	(32f\L	.	.	.	.	.	.	.	.	.
32G-X\JJJ)	.	32g-\JJJ)	.	.	.	.	.	.	.	.	.
!	!	!LO:LB:g=original	!	!	!	!	!	!	!	!	!
(32F\LLL	.	(32f\LLL	.	.	.	.	.	.	.	.	.
32G-\	.	32g-\)	.	.	.	.	.	.	.	.	.
32F\	.	(32f\	.	.	.	.	.	.	.	.	.
32G-\JJJ)	.	32g-\JJJ)	.	.	.	.	.	.	.	.	.
!LO:LB:g=original	!	!	!	!	!	!	!	!	!	!	!
8F\	.	8f\	.	8a/	.	8ff\)	.	.	.	.	.
!	!	!	!LO:DY:a	!	!	!	!	!	!	!	!
(32A\LLL	.	(32a\LLL	f	8r	.	32eee-\LLL	.	.	.	.	.
32B-\	.	32b-\	.	.	.	(32ddd\	.	.	.	.	.
32c\	.	32cc\	.	.	.	32ccc\	.	.	.	.	.
32d\JJJ)	.	32dd\JJJ)	.	.	.	32bb-\JJJ)	.	.	.	.	.
=51	=51	=51	=51	=51	=51	=51	=51	=51	=51	=51	=51
16.e-\LL	f	(16.ee-\LL	f	32f/LLL	f	16.aa\LL	f	2ryy	2ryy	2ryy	2ryy
.	.	.	.	32a/	.	.	.	.	.	.	.
.	.	.	.	32cc/	.	.	.	.	.	.	.
32d\JJk	.	32dd\JJk)	.	32a/JJJ	.	32bb-\JJk	p	.	.	.	.
!	!	!	!	!LO:LB:g=original	!	!	!	!	!	!	!
16c`\LL	p	16cc\LL|	p	32f/LLL	.	16ccc'\LL	.	.	.	.	.
.	.	.	.	32b-/	.	.	.	.	.	.	.
16B-`\JJ	.	16b-\JJ|	.	32dd/	.	16ddd'\JJ	.	.	.	.	.
.	.	.	.	32b-/JJJ	.	.	.	.	.	.	.
16F`\LL	.	16f\LL|	.	32f/LLL	.	(32eee-\LLL	.	.	.	.	.
.	.	.	.	32a/	.	32ccc\	.	.	.	.	.
16D`\	.	16d\|	.	32cc/	.	32aa\	.	.	.	.	.
.	.	.	.	32a/JJJ	.	32ccc\JJJ)	.	.	.	.	.
!	!	!	!	!	!	!LO:LB:g=original	!	!	!	!	!
!LO:TX:a:t=P:problem=mixed beam	!	!LO:TX:a:t=P:problem=mixed beam	!	!	!	!	!	!	!	!	!
16B-`\	.	16b-\|	.	32f/LLL	.	16bb-'\LL	.	.	.	.	.
.	.	.	.	32b-/	.	.	.	.	.	.	.
16AA`/JJ	.	16A/JJ|	.	32dd/	.	16ddd'\JJ	.	.	.	.	.
.	.	.	.	32b-/JJJ	.	.	.	.	.	.	.
=52	=52	=52	=52	=52	=52	=52	=52	=52	=52	=52	=52
(16.e-\LL	f	(16.ee-\LL	f	32f/LLL	.	16.aa\LLyy	f	2ryy	2ryy	2ryy	2ryy
.	.	.	.	32a/	.	.	.	.	.	.	.
.	.	.	.	32cc/	.	.	.	.	.	.	.
32d\JJk)	.	32dd\JJk)	.	32a/JJJ	.	32bb-\JJkyy	p	.	.	.	.
16c`\LL	p	16cc\LL|	p	32f/LLL	.	16ccc'\LLyy	.	.	.	.	.
.	.	.	.	32b-/	.	.	.	.	.	.	.
16B-`\JJ	.	16b-\JJ|	.	32dd/	.	16ddd'\JJyy	.	.	.	.	.
.	.	.	.	32b-/JJJ	.	.	.	.	.	.	.
16A`\LL	.	16a\LL|	.	32f/LLL	.	(32eee-\LLLyy	.	.	.	.	.
.	.	.	.	32a/	.	32ccc\yy	.	.	.	.	.
16F`\	.	16f\|	.	32cc/	.	32aa\yy	.	.	.	.	.
.	.	.	.	32a/JJJ	.	32ccc\JJJ)yy	.	.	.	.	.
!LO:TX:a:t=P:problem=mixed beam	!	!LO:TX:a:t=P:problem=mixed beam	!	!	!	!	!	!	!	!	!
16B-`\	.	16b-\|	.	32f/LLL	.	16bb-'\LLyy	.	.	.	.	.
.	.	.	.	32b-/	.	.	.	.	.	.	.
16BB-`/JJ	.	16B-/JJ|	.	32dd/	.	16ddd'\JJyy	.	.	.	.	.
.	.	.	.	32b-/JJJ	.	.	.	.	.	.	.
=53	=53	=53	=53	=53	=53	=53	=53	=53	=53	=53	=53
!	!	!LO:TX:a:t=1	!	!	!	!	!	!	!	!	!
2r	.	2r	.	16r	.	16r	.	2ryy	2ryy	2ryy	2ryy
.	.	.	.	16dd'\LL	.	16ff'\LL	.	.	.	.	.
.	.	.	.	16cc'\	.	16ee-'\	.	.	.	.	.
.	.	.	.	16b-'\JJ	.	16dd'\	.	.	.	.	.
.	.	.	.	16a'/LL	.	16cc'\	.	.	.	.	.
.	.	.	.	16g'/	.	16b-'\	.	.	.	.	.
.	.	.	.	16f'/	.	16a'\	.	.	.	.	.
.	.	.	.	16e-'/JJ	.	16g'\JJ	.	.	.	.	.
=54	=54	=54	=54	=54	=54	=54	=54	=54	=54	=54	=54
!	!	!	!	!	!LO:DY:rj	!	!LO:DY:t=f	!	!	!	!
(16.F\LL	.	(16.f\LL	.	8.c/L 8.f/	f	8.e-/L 8.a/	f	2ryy	2ryy	2ryy	2ryy
32G-X\JJk)	.	32g-X\JJk)	.	.	.	.	.	.	.	.	.
!	!LO:DY:t=for	!	!	!	!	!	!	!	!	!	!
(32F\LLL	f	(32f\LLL	f	.	.	.	.	.	.	.	.
32G-\	.	32g-\	.	.	.	.	.	.	.	.	.
32F\	.	32f\	.	16c/Jk	.	16cc/L	.	.	.	.	.
32E-\JJJ)	.	32e-\JJJ)	.	.	.	.	.	.	.	.	.
!	!	!LO:LB:g=original	!	!	!	!	!	!	!	!	!
16D\LL	.	16d\LL	.	16d/LL 16b-/	.	32ee-/L	.	.	.	.	.
.	.	.	.	.	.	32a/JJJ	.	.	.	.	.
!	!	!	!	!	!	!LO:TX:a:t=P:problem=mixed beam	!	!	!	!	!
16B-\	.	16b-\	p	16b-T/	p	16b-/LL	.	.	.	.	.
16D\	.	16d\	.	16b-/	.	(32bb-\L	.	.	.	.	.
.	.	.	.	.	.	32ff\	.	.	.	.	.
16B-\JJ	.	16b-\JJ	.	16b-/JJ	.	32bb-\	.	.	.	.	.
.	.	.	.	.	.	32ff\JJJ)	.	.	.	.	.
!LO:LB:g=original	!	!	!	!	!	!	!	!	!	!	!
=55	=55	=55	=55	=55	=55	=55	=55	=55	=55	=55	=55
16E-\LL	.	16e-\LL	.	16b-T\LL	.	16ff#X\LL	.	2ryy	2ryy	2ryy	2ryy
16B-\	.	16b-\	.	16b-\	.	16gg\JJ	.	.	.	.	.
16E-\	.	16e-\	.	16b-\	.	16r	.	.	.	.	.
16B-\JJ	.	16b-\JJ	.	16b-\JJ	.	16r	.	.	.	.	.
!	!	!	!	!LO:LB:g=original	!	!	!	!	!	!	!
16F\LL	.	16f\LL	.	16dd'\LL	.	16gg\	.	.	.	.	.
16B-\	.	16b-\	.	16b-'\JJ	.	24ff#\LL|	.	.	.	.	.
.	.	.	.	.	.	24dd\|	.	.	.	.	.
!LO:TX:a:t=P:problem=mixed beam	!	!LO:TX:a:t=P:problem=mixed beam	!	!	!	!	!	!	!	!	!
.	.	.	.	8qqb-/	.	.	.	.	.	.	.
16F\	.	16f\	.	(16cc\LL	.	.	.	.	.	.	.
.	.	.	.	.	.	(24ee-\	.	.	.	.	.
16FF/JJ	.	16F/JJ	.	32b-\L	.	32dd\L	.	.	.	.	.
.	.	.	.	32a\JJJ)	.	32cc\JJJ)	.	.	.	.	.
=56	=56	=56	=56	=56	=56	=56	=56	=56	=56	=56	=56
!	!LO:DY:t=for	!	!	!	!	!	!	!	!	!	!
16BB-\LL	f	16B-\LL	f	16b-/LL	f	16.bb-\LL	f	2ryy	2ryy	2ryy	2ryy
16B-\	.	16b-\	.	(16d/	.	.	.	.	.	.	.
.	.	.	.	.	.	16.ccc\	.	.	.	.	.
16D\	.	16d\	.	16f/	.	.	.	.	.	.	.
16B-\JJ	.	16b-\JJ	.	16d/JJ)	.	32ddd\L	.	.	.	.	.
.	.	.	.	.	.	32ccc\JJJ	.	.	.	.	.
16D\LL	.	16d\LL	.	(16f/LL	.	32bb-\LLL	.	.	.	.	.
.	.	.	.	.	.	32bb-\	.	.	.	.	.
16B-\	.	16b-\	.	16d/	.	32bb-\	.	.	.	.	.
.	.	.	.	.	.	32bb-\JJJ	.	.	.	.	.
16D\	.	16d\	.	16f/	.	32bb-\LLL	.	.	.	.	.
.	.	.	.	.	.	32bb-\	.	.	.	.	.
16B-\JJ	.	16b-\JJ	.	16d/JJ)	.	32bb-\	.	.	.	.	.
.	.	.	.	.	.	32bb-\JJJ	.	.	.	.	.
=57	=57	=57	=57	=57	=57	=57	=57	=57	=57	=57	=57
16E-\LL	p	16e-\LL	p	16b-T\LL	p	(16bb-\LL	.	2ryy	2ryy	2ryy	2ryy
16B-\	.	16b-\	.	16b-\	.	16gg\JJ)	.	.	.	.	.
16E-\	.	16e-\	.	16b-\	.	16r	.	.	.	.	.
16B-\JJ	.	16b-\JJ	.	16b-\JJ	.	16gg\	.	.	.	.	.
16F\LL	.	16f\LL	.	16dd\LL|	.	16ff\LL	.	.	.	.	.
16B-\	.	16b-\	.	16b-\JJ|	.	16dd\	.	.	.	.	.
!LO:TX:a:t=P:problem=mixed beam	!	!LO:TX:a:t=P:problem=mixed beam	!	!	!	!	!	!	!	!	!
.	.	.	.	8qqdd/	.	8qqff/	.	.	.	.	.
16F\	.	16f\	.	16cc\LL	.	16ee-\	.	.	.	.	.
16FF/JJ	.	16F/JJ	.	32b-\L	.	(32dd\L	.	.	.	.	.
.	.	.	.	32a\JJJ	.	32cc\JJJ)	.	.	.	.	.
=58	=58	=58	=58	=58	=58	=58	=58	=58	=58	=58	=58
!LO:TX:a:t=P:problem=mixed beam	!	!LO:TX:a:t=P:problem=mixed beam	!	!	!	!LO:N:vis=4	!	!	!	!	!
8BB-/L	.	8B-/L	.	4a/	.	(4.cc\	.	2ryy	2ryy	2ryy	2ryy
8B-\J	.	8b-\J	.	.	.	.	.	.	.	.	.
8BB-/	.	8B-/	.	8b-/	.	.	.	.	.	.	.
8r	.	8ryy	.	8r	.	8b-\)	.	.	.	.	.
==	==	==	==	==	==	==	==	==	==	==	==
*-	*-	*-	*-	*-	*-	*-	*-	*-	*-	*-	*-
!!!system-decoration: s1,s2,s3,s4,s5,s6,s7,s8
!!!RDF**kern: > = above
!!!RDF**kern: < = below
!!!RDF**dynam: < = cres.
!!!RDF**dynam: f = f.
!!!EED: Leszek Kubiak
!!!EEV: 2020-10-17
!!!ENC: Tomasz Grochalski
!!!END: 2020-06-03
!!!RDF**kern: | = vertical stroke
